svgs/sleep_as_android.svg

<svg width="192" height="192" viewBox="0 0 192 192" fill="none" xmlns="http://www.w3.org/2000/svg">
<path d="M30 104C30 67.5492 59.5492 38 96 38V38C132.451 38 162 67.5492 162 104V160.613C162 165.797 157.797 170 152.613 170H39.3867C34.2026 170 30 165.797 30 160.613V104Z" stroke="black" stroke-width="12" stroke-linejoin="round"/>
<path d="M60 48L46 22" stroke="black" stroke-width="12" stroke-linecap="round" stroke-linejoin="round"/>
<path d="M132 48L146 22" stroke="black" stroke-width="12" stroke-linecap="round" stroke-linejoin="round"/>
<path d="M96 110H32L80 138L96 110ZM96 110H160L112 138L96 110Z" stroke="black" stroke-width="12" stroke-linejoin="round"/>
<path d="M58.9134 82.5922C59.5165 84.0481 60.4004 85.371 61.5147 86.4853C62.629 87.5996 63.9519 88.4835 65.4078 89.0866C66.8637 89.6896 68.4241 90 70 90C71.5759 90 73.1363 89.6896 74.5922 89.0866C76.0481 88.4835 77.371 87.5996 78.4853 86.4853C79.5996 85.371 80.4835 84.0481 81.0865 82.5922" stroke="black" stroke-width="12" stroke-linecap="round" stroke-linejoin="round"/>
<path d="M110.913 82.5922C111.516 84.0481 112.4 85.371 113.515 86.4853C114.629 87.5996 115.952 88.4835 117.408 89.0866C118.864 89.6896 120.424 90 122 90C123.576 90 125.136 89.6896 126.592 89.0866C128.048 88.4835 129.371 87.5996 130.485 86.4853C131.6 85.371 132.483 84.0481 133.087 82.5922" stroke="black" stroke-width="12" stroke-linecap="round" stroke-linejoin="round"/>
</svg>

<svg width="192" height="192" viewBox="0 0 192 192" fill="none" xmlns="http://www.w3.org/2000/svg"><path d="M30 104c0-36.45 29.55-66 66-66 36.451 0 66 29.55 66 66v56.613a9.387 9.387 0 0 1-9.387 9.387H39.387A9.387 9.387 0 0 1 30 160.613V104Z" stroke="#000" stroke-width="12" stroke-linejoin="round"/><path d="M60 48 46 22M132 48l14-26" stroke="#000" stroke-width="12" stroke-linecap="round" stroke-linejoin="round"/><path d="M96 110H32l48 28 16-28Zm0 0h64l-48 28-16-28Z" stroke="#000" stroke-width="12" stroke-linejoin="round"/><path d="M58.913 82.592a12 12 0 0 0 22.174 0M110.913 82.592a11.99 11.99 0 0 0 6.495 6.495 12 12 0 0 0 15.679-6.495" stroke="#000" stroke-width="12" stroke-linecap="round" stroke-linejoin="round"/></svg>
